X: 123
T:High Spy
% Nottingham Music Database
S:Chris Dewhurst 1989, via Phil Rowe
M:6/8
K:D
A|"D"a2a "A7"gfe|"Bm"dcB "D"A2F|"G"GAB "D"Ade|"Em"faf "A7"e2A|
"D"a2a "A7"gfe|"Bm"dcB "D"A2F|"G"GAB "D"Adf|[1"A"e3 "D"d2:|[2"A" e3 "D" d3||
|:"A"eAe efg|"D"f2g a3|"G"b2b "D"afd|"E7"c2d "A"e3|
"A"eAe efg|"D"f2g a2f| "G"gab "D"afd|"A"e3 "D"d3:|


